X:82
M:2/4
L:1/8
K:D
| DF FE | DF A2 | Bc BA | FE E2 | 
| fd dB | AF A2 | Bc BA | FE E2 | 
fd dB | AF A2 | Bc Bc | ed d2 :| 

